X:13
T:Alexander's
M:C
L:1/8
K:D
(3gfe|"D" dAFA DFAd|fdcd A2 (3def|"G" (3gag (3gfe "D" (3fgf (3fed|\
"A" (3efe (3dcB A2 (3ABc|
"D" dAFA DFAd|fdcd A2 (3def|"G" (3gag (3gfe "D" (3fgf (3fed|"A" (3efe dc d2:|
|:AG|"D" FAdA FAdA|"G" GBdB GBdB|"A" Acec Acec|"D" df (3agf "A" gecA|
"D" FAdA FAdA|"G" GBdB GBdB|"A" Acef gecd|(3efe dc "D" d2:|
